X: 5
T:Angeline the Baker
S:Fiddler's Fakebook
R:reel
M:C|
K:D
dB |: "D"A2B2 d3A | B2 d4 dB | A2B2 dBA2 | "G"B6 dB |
"D"A2B2 d3e | f2e2 d3e | f2e2 "G"d2B2 |1 "D"A3B A2dB :|2 "D"A3B A2fg ||
|: "D"a2f2 e2de | f2e2 d2fg | a2f2 e2d2 | "G(Bm)"B3B B2fg |
"D"a2f2 e2de | f2e2 d2de | f2e2 "G"d2B2 |1 "D"A3B A2fg :|2 "D"A3B A2z2 |]
